X:1
T:Title
%%score 1 2 3
L:1/8
M:3/2
K:C
V:1 treble nm="Part_1"
V:2 treble-8 nm="Part_2"
V:3 treble-8 nm="Part_3"
V:1
 G6 c2 B2 A2 | c2 B2 A4 G4 | G4 A4 G4 | F2 D2 EF G3 ^FFE | G4 z2 B2 d3 B | A4 B2 B2 c2 A2 | %6
 G6 c2 B2 G2 | A3 G FE D3 B, C2 | !fermata!D4 z4 z4 | A4 G2 E2 F4 | G2 D2 F2 G2 A4 | %11
 B2 c4 B2 A3 G | B4 z2 B2 B4 | c2 B2 G4 c4 | c6 B2 B2 A2 | c4 d2 B2 A4 | B3 A BA G3 E F2 | G12 |] %18
V:2
 G6 c2 B2 A2 | c8 d4 | c2 d2 f4 e4 | d4 c2 B2 A4 | G12 | z2 c2 d2 B2 A4 | B2 B2 c2 A2 G4 | %7
 F2 A3 F G2 E4 | !fermata!D8 D4 | F4 G2 B2 A4 | G4 D2 E2 F2 D2- | D2 A4 d2 B3 A | G8 G4 | %13
 A2 B2 c8 | e4 d8 | c2 A2 G4 F4 | G2 D2 d2 B2 A4 | G12 |] %18
V:3
 G2 E3 C E2 D4 | C8 G4 | C2 G2 F2 D2 E2 C2 | z2 G3 A G2 D4 | d4 e2 d2 B3 G | F4 z2 G2 A2 F2 | %6
 G4 C4 E4 | D4 A2 B2 G3 F | A6 d4 A2- | A2 c2 B2 G2 D4 | B3 G A2 G2 c2 d2 | z2 c2 F2 G2 A4 | %12
 d6 B4 d2 | c2 d2 e6 A2- | A2 c2 G8 | C2 c2 B2 d2 z2 D2 | d3 B G4 D4 | d12 |] %18

